public/images/home/shopify.svg

<svg width="154" height="39" viewBox="0 0 154 39" fill="none" xmlns="http://www.w3.org/2000/svg">
<g clip-path="url(#clip0)">
<path d="M33.218 7.3866C33.1882 7.19288 32.9986 7.08541 32.8413 7.07371C32.6851 7.06201 29.6256 7.02051 29.6256 7.02051C29.6256 7.02051 27.0668 4.8026 26.814 4.57697C26.5613 4.35135 26.0677 4.41946 25.8757 4.47054C25.8734 4.47161 25.3952 4.60358 24.5904 4.82601C24.4557 4.43649 24.2577 3.95757 23.9751 3.47653C23.0643 1.92485 21.73 1.10431 20.118 1.10218C20.1156 1.10218 20.1144 1.10218 20.112 1.10218C19.9999 1.10218 19.8891 1.11176 19.777 1.12027C19.7293 1.06919 19.6816 1.01917 19.6316 0.970211C18.9292 0.299734 18.0291 -0.0269919 16.95 0.00174293C14.8682 0.0549557 12.7948 1.39698 11.1136 3.78091C9.93085 5.45817 9.03063 7.56543 8.77549 9.1969C6.38488 9.85779 4.71324 10.3197 4.67628 10.3303C3.46965 10.6687 3.4315 10.7017 3.27411 11.7171C3.15726 12.4843 0 34.2761 0 34.2761L26.4588 38.3607L37.9265 35.816C37.9265 35.816 33.2478 7.58032 33.218 7.3866ZM23.2657 5.19211C22.6565 5.36026 21.9637 5.55183 21.2125 5.75936C21.1971 4.81856 21.0719 3.50953 20.5806 2.37822C22.1605 2.64535 22.9378 4.24067 23.2657 5.19211ZM19.8283 6.14249C18.4416 6.5256 16.9285 6.94385 15.4107 7.3632C15.8376 5.9041 16.6472 4.45139 17.6416 3.49888C18.0112 3.14449 18.5286 2.74965 19.1415 2.52402C19.7174 3.59679 19.8426 5.11548 19.8283 6.14249ZM16.9917 1.2384C17.4806 1.22883 17.8919 1.32461 18.2437 1.53108C17.6809 1.79182 17.1372 2.16644 16.6269 2.65493C15.3046 3.92139 14.2911 5.88707 13.8869 7.78357C12.6266 8.13157 11.3938 8.47323 10.2587 8.78613C10.9753 5.80087 13.7784 1.32142 16.9917 1.2384Z" fill="#95BF47"/>
<path d="M32.839 7.07387C32.6829 7.06217 29.6233 7.02068 29.6233 7.02068C29.6233 7.02068 27.0646 4.80276 26.8119 4.57714C26.7177 4.49306 26.5901 4.44942 26.4565 4.43134L26.4577 38.3587L37.9243 35.8151C37.9243 35.8151 33.2456 7.58049 33.2158 7.38677C33.186 7.19305 32.9952 7.08557 32.839 7.07387Z" fill="#5E8E3E"/>
<path d="M20.0996 12.3372L18.7678 16.7847C18.7678 16.7847 17.2822 16.1813 15.5211 16.2802C12.9385 16.4261 12.9111 17.8798 12.9374 18.2449C13.078 20.2339 18.9406 20.6682 19.2698 25.3275C19.5285 28.9928 17.0913 31.5001 13.58 31.6981C9.36514 31.9354 7.04489 29.7164 7.04489 29.7164L7.93795 26.3257C7.93795 26.3257 10.2737 27.8987 12.1432 27.7934C13.3642 27.7242 13.8005 26.8377 13.7564 26.2108C13.5728 23.6161 8.79878 23.7694 8.49715 19.506C8.24316 15.9184 10.883 12.2829 16.7074 11.9551C18.9514 11.8264 20.0996 12.3372 20.0996 12.3372Z" fill="white"/>
<path d="M53.0273 21.6486C51.7087 21.0099 51.031 20.4716 51.031 19.7316C51.031 18.7901 51.9723 18.1852 53.4424 18.1852C55.1536 18.1852 56.6815 18.8238 56.6815 18.8238L57.8865 15.5283C57.8865 15.5283 56.7784 14.7546 53.5169 14.7546C48.978 14.7546 45.8323 17.0747 45.8323 20.3364C45.8323 22.1858 47.3011 23.5982 49.2606 24.6062C50.843 25.4127 51.4083 25.9849 51.4083 26.8251C51.4083 27.6991 50.6171 28.4053 49.1483 28.4053C46.9593 28.4053 44.8921 27.3961 44.8921 27.3961L43.6114 30.6916C43.6114 30.6916 45.5213 31.8349 48.7344 31.8349C53.4057 31.8349 56.7584 29.7838 56.7584 26.0851C56.7572 24.1028 55.0625 22.6904 53.0273 21.6486Z" fill="black"/>
<path d="M71.6331 14.7253C69.3351 14.7253 67.5269 15.7007 66.1338 17.1795L66.0581 17.1457L68.0543 7.8324H62.8556L57.8083 31.5364H63.007L64.7395 23.4338C65.4171 20.3737 67.1875 18.4916 68.8455 18.4916C70.0127 18.4916 70.4657 19.1978 70.4657 20.2069C70.4657 20.8455 70.39 21.6193 70.2398 22.2579L68.2814 31.5375H73.4804L75.5139 21.9549C75.7402 20.9458 75.8914 19.7362 75.8914 18.9286C75.8892 16.3055 74.3449 14.7253 71.6331 14.7253Z" fill="black"/>
<path d="M87.6424 14.7258C81.3885 14.7258 77.2463 19.7694 77.2463 25.384C77.2463 28.9814 79.7318 31.8727 84.4034 31.8727C90.5433 31.8727 94.687 26.9642 94.687 21.2145C94.687 17.8862 92.5016 14.7258 87.6424 14.7258ZM85.081 28.3101C83.3103 28.3101 82.5568 26.9653 82.5568 25.2837C82.5568 22.6279 84.1018 18.2906 86.9268 18.2906C88.7727 18.2906 89.3743 19.7029 89.3743 21.0815C89.3743 23.9389 87.8315 28.3101 85.081 28.3101Z" fill="black"/>
<path d="M107.989 14.7258C104.48 14.7258 102.488 17.483 102.488 17.483H102.414L102.715 14.995H98.1198C97.8941 16.6765 97.4787 19.231 97.0654 21.148L93.4489 38.1269H98.6477L100.078 31.2678H100.192C100.192 31.2678 101.259 31.8727 103.243 31.8727C109.345 31.8727 113.338 26.2918 113.338 20.6424C113.338 17.5168 111.793 14.7258 107.989 14.7258ZM103.016 28.3765C101.667 28.3765 100.868 27.7041 100.868 27.7041L101.735 23.3668C102.338 20.4756 104.033 18.5586 105.841 18.5586C107.424 18.5586 107.913 19.8697 107.913 21.1142C107.913 24.1067 105.916 28.3765 103.016 28.3765Z" fill="black"/>
<path d="M120.76 8.06848C119.104 8.06848 117.785 9.24545 117.785 10.7581C117.785 12.1367 118.764 13.0783 120.233 13.0783H120.308C121.929 13.0783 123.322 12.1029 123.36 10.3887C123.36 9.0438 122.343 8.06848 120.76 8.06848Z" fill="black"/>
<path d="M113.486 31.534H118.683L122.225 15.0934H116.988L113.486 31.534Z" fill="black"/>
<path d="M135.445 15.0588H131.828L132.016 14.285C132.317 12.7048 133.372 11.2925 135.105 11.2925C136.03 11.2925 136.762 11.5279 136.762 11.5279L137.779 7.8967C137.779 7.8967 136.875 7.49347 134.953 7.49347C133.107 7.49347 131.263 7.96422 129.868 9.03985C128.098 10.3847 127.269 12.3343 126.855 14.285L126.705 15.0588H124.294L123.54 18.5559H125.952L123.202 31.5342H128.401L131.15 18.5559H134.729L135.445 15.0588Z" fill="black"/>
<path d="M147.955 15.0946C147.955 15.0946 144.705 22.4023 143.246 26.3914H143.17C143.071 25.1067 141.889 15.0946 141.889 15.0946H136.427L139.555 30.1903C139.631 30.5261 139.593 30.7287 139.442 30.9641C138.838 32.006 137.821 33.0151 136.616 33.7551C135.637 34.3936 134.545 34.7969 133.679 35.066L135.11 39.0002C136.165 38.7986 138.349 38.0249 140.195 36.4784C142.568 34.495 144.752 31.4349 147.012 27.2653L153.378 15.0935H147.955V15.0946Z" fill="black"/>
</g>
<defs>
<clipPath id="clip0">
<rect width="154" height="39" fill="white"/>
</clipPath>
</defs>
</svg>

<svg xmlns="http://www.w3.org/2000/svg" width="154" height="39" fill="none" xmlns:v="https://vecta.io/nano"><g clip-path="url(#A)"><path d="M33.218 7.387c-.03-.194-.219-.301-.377-.313s-3.216-.053-3.216-.053l-2.812-2.444c-.253-.226-.746-.158-.938-.106-.002.001-.48.133-1.285.355-.135-.39-.333-.868-.615-1.349-.911-1.552-2.245-2.372-3.857-2.374-.118 0-.229.01-.341.018l-.145-.15C18.929.3 18.029-.027 16.95.002c-2.082.053-4.155 1.395-5.836 3.779-1.183 1.677-2.083 3.785-2.338 5.416L4.676 10.33c-1.207.338-1.245.371-1.402 1.387L0 34.276l26.459 4.085 11.468-2.545-4.708-28.429zm-9.952-2.194l-2.053.567c-.015-.941-.141-2.25-.632-3.381 1.58.267 2.357 1.862 2.685 2.814zm-3.437.95l-4.418 1.221c.427-1.459 1.237-2.912 2.231-3.864.37-.354.887-.749 1.5-.975.576 1.073.701 2.591.687 3.618zm-2.837-4.904c.489-.01.9.086 1.252.293a5.99 5.99 0 0 0-1.617 1.124c-1.322 1.266-2.336 3.232-2.74 5.129l-3.628 1.003c.717-2.985 3.52-7.465 6.733-7.548z" fill="#95bf47"/><path d="M32.839 7.074c-.156-.012-3.216-.053-3.216-.053l-2.811-2.444c-.094-.084-.222-.128-.355-.146l.001 33.927 11.467-2.544-4.709-28.428c-.03-.194-.221-.301-.377-.313z" fill="#5e8e3e"/><path d="M20.1 12.337l-1.332 4.448s-1.486-.603-3.247-.505c-2.583.146-2.61 1.6-2.584 1.965.141 1.989 6.003 2.423 6.332 7.083.259 3.665-2.178 6.173-5.69 6.371-4.215.237-6.535-1.982-6.535-1.982l.893-3.391s2.336 1.573 4.205 1.468c1.221-.069 1.657-.956 1.613-1.583-.184-2.595-4.958-2.441-5.259-6.705-.254-3.588 2.386-7.223 8.21-7.551 2.244-.129 3.392.382 3.392.382z" fill="#fff"/><g fill="#000"><path d="M53.027 21.649c-1.319-.639-1.996-1.177-1.996-1.917 0-.942.941-1.546 2.411-1.546 1.711 0 3.239.639 3.239.639l1.205-3.295s-1.108-.774-4.37-.774c-4.539 0-7.685 2.32-7.685 5.582 0 1.849 1.469 3.262 3.428 4.27 1.582.806 2.148 1.379 2.148 2.219 0 .874-.791 1.58-2.26 1.58-2.189 0-4.256-1.009-4.256-1.009l-1.281 3.296s1.91 1.143 5.123 1.143c4.671 0 8.024-2.051 8.024-5.75-.001-1.982-1.696-3.395-3.731-4.437zm18.606-6.924c-2.298 0-4.106.975-5.499 2.454l-.076-.034 1.996-9.313h-5.199l-5.047 23.704h5.199l1.733-8.103c.678-3.06 2.448-4.942 4.106-4.942 1.167 0 1.62.706 1.62 1.715 0 .639-.076 1.412-.226 2.051l-1.958 9.28h5.199l2.034-9.583c.226-1.009.377-2.219.377-3.026-.002-2.623-1.547-4.203-4.258-4.203zm16.009.001c-6.254 0-10.396 5.044-10.396 10.658 0 3.597 2.486 6.489 7.157 6.489 6.14 0 10.284-4.908 10.284-10.658 0-3.328-2.185-6.489-7.045-6.489zM85.081 28.31c-1.771 0-2.524-1.345-2.524-3.026 0-2.656 1.545-6.993 4.37-6.993 1.846 0 2.448 1.412 2.448 2.791 0 2.857-1.543 7.229-4.293 7.229zm22.908-13.584c-3.509 0-5.501 2.757-5.501 2.757h-.074l.301-2.488H98.12l-1.054 6.153-3.617 16.979h5.199l1.43-6.859h.114s1.067.605 3.051.605c6.102 0 10.095-5.581 10.095-11.23 0-3.126-1.545-5.917-5.349-5.917zm-4.973 13.651c-1.349 0-2.148-.672-2.148-.672l.867-4.337c.603-2.891 2.298-4.808 4.106-4.808 1.583 0 2.072 1.311 2.072 2.556 0 2.992-1.997 7.262-4.897 7.262zM120.76 8.068c-1.656 0-2.975 1.177-2.975 2.69 0 1.379.979 2.32 2.448 2.32h.075c1.621 0 3.014-.975 3.052-2.69 0-1.345-1.017-2.32-2.6-2.32zm-7.274 23.466h5.197l3.542-16.441h-5.237l-3.502 16.441zm21.959-16.475h-3.617l.188-.774c.301-1.58 1.356-2.992 3.089-2.992.925 0 1.657.235 1.657.235l1.017-3.631s-.904-.403-2.826-.403c-1.846 0-3.69.471-5.085 1.546-1.77 1.345-2.599 3.294-3.013 5.245l-.15.774h-2.411l-.754 3.497h2.412l-2.75 12.978h5.199l2.749-12.978h3.579l.716-3.497zm12.51.036s-3.25 7.308-4.709 11.297h-.076c-.099-1.285-1.281-11.297-1.281-11.297h-5.462l3.128 15.096c.076.336.038.538-.113.774-.604 1.042-1.621 2.051-2.826 2.791-.979.639-2.071 1.042-2.937 1.311L135.11 39c1.055-.202 3.239-.975 5.085-2.522 2.373-1.983 4.557-5.044 6.817-9.213l6.366-12.172h-5.423v.001z"/></g></g><defs><clipPath id="A"><path fill="#fff" d="M0 0h154v39H0z"/></clipPath></defs></svg>
